icons/lines/driving.svg

<svg xmlns="http://www.w3.org/2000/svg" width="24" height="24" viewBox="0 0 24 24" fill="none" stroke="currentColor" stroke-width="2" stroke-linecap="round" stroke-linejoin="round" >
  <path d="M14.5502 2H9.4502C7.6502 2 7.2502 2.90001 7.0202 4.01001L6.2002 7.92999H17.8002L16.9802 4.01001C16.7502 2.90001 16.3502 2 14.5502 2Z"/>
  <path d="M19.2401 14.3199C19.3201 15.1699 18.6401 15.9 17.7701 15.9H16.4101C15.6301 15.9 15.5201 15.57 15.3801 15.15L15.23 14.7199C15.03 14.1299 14.9001 13.7299 13.8501 13.7299H10.1401C9.10005 13.7299 8.94005 14.1799 8.76005 14.7199L8.61005 15.15C8.47005 15.56 8.36006 15.9 7.58006 15.9H6.22005C5.35005 15.9 4.67005 15.1699 4.75005 14.3199L5.16006 9.89996C5.26006 8.80996 5.47005 7.91992 7.37005 7.91992H16.62C18.52 7.91992 18.7301 8.80996 18.8301 9.89996L19.2401 14.3199Z"/>
  <path d="M6.20021 5.75H5.47021"/>
  <path d="M18.5303 5.75H17.8003"/>
  <path d="M7.6499 10.8301H9.81992"/>
  <path d="M14.1802 10.8301H16.3502"/>
  <path d="M12 17V18"/>
  <path d="M12 21V22"/>
  <path d="M3 18L2 22"/>
  <path d="M21 18L22 22"/>
  </svg>

<svg xmlns="http://www.w3.org/2000/svg" width="24" height="24" viewBox="0 0 24 24" fill="none" stroke="currentColor" stroke-width="2" stroke-linecap="round" stroke-linejoin="round">
  <path d="M12 17v1" />
  <path d="M12 21v1" />
  <path d="M14.18 10.83h2.17" />
  <path d="M18.53 5.75h-.73" />
  <path d="M19.24 14.32c.08.85-.6 1.58-1.47 1.58h-1.36c-.78 0-.89-.33-1.03-.75l-.15-.43c-.2-.59-.33-.99-1.38-.99h-3.71c-1.04 0-1.2.45-1.38.99l-.15.43c-.14.41-.25.75-1.03.75H6.22c-.87 0-1.55-.73-1.47-1.58l.41-4.42c.1-1.09.31-1.98 2.21-1.98h9.25c1.9 0 2.11.89 2.21 1.98z" />
  <path d="m21 18 1 4" />
  <path d="m3 18-1 4" />
  <path d="M6.2 5.75h-.73" />
  <path d="M7.65 10.83h2.17" />
  <path d="M9.45 2c-1.8 0-2.2.9-2.43 2.01L6.2 7.93h11.6l-.82-3.92C16.75 2.9 16.35 2 14.55 2z" />
</svg>
